X: 28
T:Astley's Hornpipe (#332)
M:4/4
L:1/8
S:Wilson's Companion to the Ballroom 1816
R:Hornpipe
K:G
GABc dcBd|gfge e2 d2|BdBG cecA|BdBG GFED|
GABc dcBd|gfge e2 d2|BdBG cecA|G2 F2 G2 z2:|
|:defg fafd|gbge fafd|defg a2 c2|BdBG GFED|
BdBG cecA|fafd gbge|dgfe dcBA|G2 F2 G2 z2:||

